X:1
T:Title
%%score ( 1 2 ) { 3 | 4 }
L:1/8
Q:1/4=100
M:4/4
K:F
V:1 treble nm="Grand Piano, Soprano"
V:2 treble 
V:3 treble nm="Choir Pad, Peace, Be Still! Beede, 1901"
V:4 bass 
V:1
 C2 [FA]2- [FA][FA][FA][FA] | [EG][FA] [EB]6 | C2 [EB]2- [EB][EB][EB][EB] | [FA][GB] [Ac]6 | %4
w: By~Peter~Philip~Bilhorn * * * * *||||
 C2 [Fc]2- [Fc][Fc][FB][FA] | [_EG][EF] [DB]6 | [Fd]2 [Fc]2- [Fc][FA][Ec][EB] | [FA][EG] [CF]6 | %8
w: ||||
 [_EF]2 [DF]>[Fd] .[Fd]4 | [Fd]2 [Fc]>[FA] .[FA]4 | [Fc]2 [F=B]2- [FB][FB][FB][FG] | %11
w: |||
 [FA][F=B] [Ec]4 [G_B]2- | [GB]2 .[FA]2 .[EB]2 .[Fc]2 | [Fe]2 [Ff]6 | z2 [CF]2 z2 [CEG]2 | z2 F6- | %16
w: |||||
 F6 z2 |] %17
w: |
V:2
 x8 | x8 | x8 | x8 | x8 | x8 | x8 | x8 | x8 | x8 | x8 | x8 | x8 | x8 | x8 | z [CF] A,2 B,B, A,2- | %16
 A,6 z2 |] %17
V:3
 A,2 C2- CCCC | CC C6 | B,2 G,2- G,G,G,G, | CC C6 | A,2 A,2- A,A,DC | A,A, B,6 | %6
 B,2 A,2- A,[K:treble]CG,C | CB,[K:bass] A,6 | A,2 B,>B, .B,4 | B,2 A,>C .C4 | %10
 A,2 G,2- G,/ z/[K:treble] D D=B, | =B,D C4 C2- | C2 .C2 .C2 .C2 | _E2 D6 | z2 A,2 z2[K:bass] B,2 | %15
 z A, F,2 D,D, C,2- | C,6 z2 |] %17
V:4
 F,2 F,2- F,F,F,F, | C,F, G,6 | C,2 C,2- C,C,C,C, | C,C, F,6 | F,2 F,2- F,F,F,F, | F,F, B,,6 | %6
 B,,2 C,2- C,C,C,C, | C,C, F,6 | F,2 B,,>B,, .B,,4 | B,,2 F,>F, .F,4 | F,2 z2 z G,,G,,G,, | %11
 G,,G,, C,4 E,2- | E,2 .F,2 .G,2 .A,2 | A,2 B,6 | z2 F,2 z2 C,2 | z F,, F,,6- | F,,6 z2 |] %17

